X:1

T:Bay of Biscay O, The

M:C

L:1/8

R:Air

N:”Quick and spirited”

S:O’Neill – Music of Ireland (1903), No. 329

Z:AK/Fiddler’s Companion

K:D

A|Addf d2 Bc/d/|e>f a/g/f/e/ d2 cA|Addf a>f dd/e/|fdec d2||

d>c|BAGF E3 e|e>f g/f/e/d/ d{c/e/d/}c AB/c/|d2 Bc/d/ e2 de/f/|a/g/f/g/ fe d2 z||

                       

BAY OF FUNDY. Canadian, Reel. D Major. Standard tuning. AABB. Composed by fiddler Bill Guest, originally from Halifax, Nova Scotia, but a resident of Goodlettsville, Tennessee, for many years prior to returning to Halifax. Guest has composed a number of traditional sounding tunes and published several collections of tune books of his and other famous fiddlers’ music. Guest, a multi-instrumentalist, played piano for Canadian fiddle great Don Messar and many other Canadian and Nashville musicians. The Bay of Fundy is located between New Brunswick and Nova Scotia, and is the location of some of the most dramatic tides in the world. Source for notated version: John Roberts (Eng./Vt.) [Spandaro]. Fiddler Magazine, Summer 2008, vol. 15, No. 2; pg. 49. Guest, A Hundred Favorite Fiddle Tunes. Johnson, No. 1, 1991; pg. 5. Spandaro (10 Cents a Dance), 1980; pg. 15. Songer (Portland Collection), 1997; pg. 24. Audat 477-3002, Bill Guest – “50 Great Fiddle Hits” (c. 1970’s). Dorian Discovery DIS-80103, Helicon - "Horizons" (1992). Rooster Records RSTR 117, “Swallowtail.”

